Newaita-dark/actions/24/edit-select-all-layers.svg

<svg height="24" viewBox="0 0 24 24" width="24" xmlns="http://www.w3.org/2000/svg"><g fill="#e0e0e0"><path d="m3.96875 2.171875c-1.097656 0-1.984375.886719-1.984375 1.984375v3.96875h1.984375v-2.976562c0-.550782.441406-.992188.992188-.992188h2.976562v-1.984375zm11.90625 0v1.984375h2.976562c.550782 0 .992188.441406.992188.992188v2.976562h1.988281v-3.96875c0-1.097656-.886719-1.984375-1.988281-1.984375zm-13.890625 13.890625v3.96875c0 1.101562.886719 1.988281 1.984375 1.988281h3.96875v-1.988281h-2.976562c-.550782 0-.992188-.441406-.992188-.992188v-2.976562zm17.859375 0v2.976562c0 .550782-.441406.992188-.992188.992188h-2.976562v1.988281h3.96875c1.101562 0 1.988281-.886719 1.988281-1.988281v-3.96875zm0 0"/><path d="m6.488281 15.816406-.527343 1.574219c-.050782.15625-.023438.328125.070312.460937.097656.136719.253906.214844.417969.214844h9.425781c.222656 0 .417969-.140625.488281-.351562l.632813-1.898438h-1.082032l-.410156 1.222656h-8.339844l.40625-1.222656zm0 0"/><path d="m6.488281 12.589844-.527343 1.574218c-.050782.15625-.023438.332032.070312.464844.097656.132813.253906.214844.417969.214844h9.425781c.222656 0 .417969-.144531.488281-.351562l.632813-1.902344h-1.082032l-.410156 1.222656h-8.339844l.40625-1.222656zm0 0"/><path d="m7.9375 6.121094c-.21875 0-.417969.144531-.488281.355468l-1.488281 4.464844c-.050782.15625-.023438.328125.070312.460938.097656.136718.253906.214844.417969.214844h9.425781c.222656 0 .417969-.140626.488281-.351563l1.488281-4.464844c.054688-.15625.027344-.332031-.070312-.464843-.09375-.132813-.25-.214844-.417969-.214844zm.371094 1.03125h8.34375l-1.148438 3.4375h-8.339844zm0 0"/></g></svg>

<?xml version="1.0" encoding="UTF-8"?>
<svg xmlns="http://www.w3.org/2000/svg" xmlns:xlink="http://www.w3.org/1999/xlink" width="24px" height="24px" viewBox="0 0 24 24" version="1.1">
<g id="surface1">
<path style=" stroke:none;fill-rule:nonzero;fill:rgb(87.843138%,87.843138%,87.843138%);fill-opacity:1;" d="M 3.96875 2.171875 C 2.871094 2.171875 1.984375 3.058594 1.984375 4.15625 L 1.984375 8.125 L 3.96875 8.125 L 3.96875 5.148438 C 3.96875 4.597656 4.410156 4.15625 4.960938 4.15625 L 7.9375 4.15625 L 7.9375 2.171875 Z M 15.875 2.171875 L 15.875 4.15625 L 18.851562 4.15625 C 19.402344 4.15625 19.84375 4.597656 19.84375 5.148438 L 19.84375 8.125 L 21.832031 8.125 L 21.832031 4.15625 C 21.832031 3.058594 20.945312 2.171875 19.84375 2.171875 Z M 1.984375 16.0625 L 1.984375 20.03125 C 1.984375 21.132812 2.871094 22.019531 3.96875 22.019531 L 7.9375 22.019531 L 7.9375 20.03125 L 4.960938 20.03125 C 4.410156 20.03125 3.96875 19.589844 3.96875 19.039062 L 3.96875 16.0625 Z M 19.84375 16.0625 L 19.84375 19.039062 C 19.84375 19.589844 19.402344 20.03125 18.851562 20.03125 L 15.875 20.03125 L 15.875 22.019531 L 19.84375 22.019531 C 20.945312 22.019531 21.832031 21.132812 21.832031 20.03125 L 21.832031 16.0625 Z M 19.84375 16.0625 "/>
<path style=" stroke:none;fill-rule:nonzero;fill:rgb(87.843138%,87.843138%,87.843138%);fill-opacity:1;" d="M 6.488281 15.816406 L 5.960938 17.390625 C 5.910156 17.546875 5.9375 17.71875 6.03125 17.851562 C 6.128906 17.988281 6.285156 18.066406 6.449219 18.066406 L 15.875 18.066406 C 16.097656 18.066406 16.292969 17.925781 16.363281 17.714844 L 16.996094 15.816406 L 15.914062 15.816406 L 15.503906 17.039062 L 7.164062 17.039062 L 7.570312 15.816406 Z M 6.488281 15.816406 "/>
<path style=" stroke:none;fill-rule:nonzero;fill:rgb(87.843138%,87.843138%,87.843138%);fill-opacity:1;" d="M 6.488281 12.589844 L 5.960938 14.164062 C 5.910156 14.320312 5.9375 14.496094 6.03125 14.628906 C 6.128906 14.761719 6.285156 14.84375 6.449219 14.84375 L 15.875 14.84375 C 16.097656 14.84375 16.292969 14.699219 16.363281 14.492188 L 16.996094 12.589844 L 15.914062 12.589844 L 15.503906 13.8125 L 7.164062 13.8125 L 7.570312 12.589844 Z M 6.488281 12.589844 "/>
<path style=" stroke:none;fill-rule:nonzero;fill:rgb(87.843138%,87.843138%,87.843138%);fill-opacity:1;" d="M 7.9375 6.121094 C 7.71875 6.121094 7.519531 6.265625 7.449219 6.476562 L 5.960938 10.941406 C 5.910156 11.097656 5.9375 11.269531 6.03125 11.402344 C 6.128906 11.539062 6.285156 11.617188 6.449219 11.617188 L 15.875 11.617188 C 16.097656 11.617188 16.292969 11.476562 16.363281 11.265625 L 17.851562 6.800781 C 17.90625 6.644531 17.878906 6.46875 17.78125 6.335938 C 17.6875 6.203125 17.53125 6.121094 17.363281 6.121094 Z M 8.308594 7.152344 L 16.652344 7.152344 L 15.503906 10.589844 L 7.164062 10.589844 Z M 8.308594 7.152344 "/>
</g>
</svg>
